!!!!SEGMENT: pl-sa--l-1643--043-004_anonim--adoro-te-supplex-latens-deitas-quarta-pars.krn
!!!cenid: 16xx:1401
!!!COM: Anonim
!!!COM-rismid: pe30004985
!!!CDT:
!!!CNT:
!!!OTL: Adoro te supplex, latens deitas
!!!PDT:
!!!AGN: Sacred
!!!SMS-siglum: PL-SA
!!!SMS-shelfmark: L 1643
!!!SMS-shelfwork: 043-004 M
!!!SMS-variant:
!!!SMS-altvar:
!!!NIFC-rismid: 1001063146
!!!URL-scan: http://repozytorium.nifc.pl/skany/pl-sa-nut--l1643
!!!ONB-nifc: UWAGA: 8 ksiąg. Primi chori: 1mus Cantus (72-74), C 2dus (72-74), C 3tius (70-72), Bassus (67-69); Secondi chori: Primus Cantus (68-70), C 2dus (71-73), Altus (69-71), Bassus (69-71). UWAGA: metrum 2/2 i 3/2. Pliki dla osobnych 4 części. Nie dodawać pustych linii, chyba że w rękopisie pojawiają się dodatkowe oznaczenia dotyczące pełnej obsady (a 4, a 8 itp.)
**kern	**text	**kern	**text	**kern	**text	**kern	**text	**kern	**text	**kern	**text	**kern	**text	**kern	**text
*part8	*part8	*part7	*part7	*part6	*part6	*part5	*part5	*part4	*part4	*part3	*part3	*part2	*part2	*part1	*part1
*staff8	*staff8	*staff7	*staff7	*staff6	*staff6	*staff5	*staff5	*staff4	*staff4	*staff3	*staff3	*staff2	*staff2	*staff1	*staff1
*I"Secondi chori Bassus	*	*I"Secondi chori Altus	*	*I"Secondi chori C 2dus	*	*I"Secondi chori: Primus Cantus	*	*I"Primi chori Bassus	*	*I"Primi chori: C 3tius	*	*I"Primi chori: C 2dus	*	*I"Primi chori: 1mus Cantus	*
*I'Coro 2 B	*	*I'Coro 2 A	*	*I'Coro 2 C 2	*	*I'Coro 2 C 1	*	*I'Coro 1 B	*	*I'Coro 1 C 3	*	*I'Coro 1 C 2	*	*I'Coro 1 C 1	*
*clefC3	*	*clefC2	*	*clefC1	*	*clefG2	*	*clefC3	*	*clefC2	*	*clefC1	*	*clefG2	*
*k[]	*	*k[]	*	*k[]	*	*k[]	*	*k[]	*	*k[]	*	*k[]	*	*k[]	*
*F:	*	*F:	*	*F:	*	*F:	*	*F:	*	*F:	*	*F:	*	*F:	*
*M3/2	*	*M3/2	*	*M3/2	*	*M3/2	*	*M3/2	*	*M3/2	*	*M3/2	*	*M3/2	*
=1-	=1-	=1-	=1-	=1-	=1-	=1-	=1-	=1-	=1-	=1-	=1-	=1-	=1-	=1-	=1-
0.r	.	0.r	.	0.r	.	0.r	.	1f	JE-	1a	JE-	1cc	JE-	1ff	JE-
.	.	.	.	.	.	.	.	2c/	-SV	2g\	-SV	2cc\	-SV	2ee\	-SV
=2-	=2-	=2-	=2-	=2-	=2-	=2-	=2-	=2-	=2-	=2-	=2-	=2-	=2-	=2-	=2-
.	.	.	.	.	.	.	.	1d	quem	1f	quem	2.a\	quem	1dd	quem
.	.	.	.	.	.	.	.	.	.	.	.	4b\	.	.	.
.	.	.	.	.	.	.	.	2A/	ve-	2e/	ve-	2cc\	ve-	2cc\	ve-
=3-	=3-	=3-	=3-	=3-	=3-	=3-	=3-	=3-	=3-	=3-	=3-	=3-	=3-	=3-	=3-
1.r	.	1.r	.	1.r	.	1.r	.	1d	-la-	1f	-la-	1a	-la-	1dd	-la-
.	.	.	.	.	.	.	.	2c/	-tum	2g,<\	-tum	2cc\	-tum	2ee\	-tum
=4-	=4-	=4-	=4-	=4-	=4-	=4-	=4-	=4-	=4-	=4-	=4-	=4-	=4-	=4-	=4-
1f	JE-	1a	JE-	1cc	JE-	1ff	JE-	1F	JE-	1f	JE-	1cc	JE-	1aa	JE-
2c/	-SV	2e/	-SV	2g/	-SV	2ee\	-SV	2c,</	-SV	2g\	-SV	2cc\	-SV	2gg\	-SV
=5-	=5-	=5-	=5-	=5-	=5-	=5-	=5-	=5-	=5-	=5-	=5-	=5-	=5-	=5-	=5-
1d	quem	1f	quem	1dd	quem	1dd	quem	2a\	quem	2.f\	quem	2.a\	quem	1ff	quem
.	.	.	.	.	.	.	.	2d\	.	.	.	.	.	.	.
.	.	.	.	.	.	.	.	.	.	4g\	.	4b\	.	.	.
2A/	ve-	2c/	ve-	2cc\	ve-	2ee\	ve-	2a\	ve-	2a\	ve-	2cc\	ve-	2ee\	ve-
=6-	=6-	=6-	=6-	=6-	=6-	=6-	=6-	=6-	=6-	=6-	=6-	=6-	=6-	=6-	=6-
1d	-la-	1f	-la-	1dd	-la-	1ff	-la-	1d	-la-	1a	-la-	1a	-la-	1dd	-la-
2a\	-tum	2a\	-tum	2ee\	-tum	2ee\	-tum	2A/	-tum	2a\	-tum	2cc\	-tum	2ee\	-tum
=7-	=7-	=7-	=7-	=7-	=7-	=7-	=7-	=7-	=7-	=7-	=7-	=7-	=7-	=7-	=7-
*M2/2	*	*M2/2	*	*M2/2	*	*M2/2	*	*M2/2	*	*M2/2	*	*M2/2	*	*M2/2	*
*met(C|)	*	*met(C|)	*	*met(C|)	*	*met(C|)	*	*met(C|)	*	*met(C|)	*	*met(C|)	*	*met(C|)	*
!	!	!	!	!	!	!	!	!	!	!	!	!LO:SIC:v:t=custos dd	!	!	!
0r	.	0r	.	0r	.	0r	.	2c/	nunc	4cc\	nunc	2ee\	nunc	2gg\	nunc
!	!	!	!	!	!	!	!	!	!	!LO:SIC:v:t=custos a	!	!	!	!	!
.	.	.	.	.	.	.	.	.	.	4b\	.	.	.	.	.
!	!	!	!	!	!	!	!	!LO:SIC:v:t=custos e	!	!LO:LB:g=original	!	!LO:LB:g=original	!	!	!
.	.	.	.	.	.	.	.	2d\	a-	2.a\	a-	4.dd\	a-	2ff\	a-
.	.	.	.	.	.	.	.	.	.	.	.	8cc\	-spi-	.	.
=8-	=8-	=8-	=8-	=8-	=8-	=8-	=8-	=8-	=8-	=8-	=8-	=8-	=8-	=8-	=8-
!	!	!	!	!	!	!	!	!LO:LB:g=original	!	!	!	!	!	!	!
.	.	.	.	.	.	.	.	2.e\	-spi-	.	.	2.b\	.	2.ee\	-spi-
.	.	.	.	.	.	.	.	.	.	8g\L	-spi-	.	.	.	.
.	.	.	.	.	.	.	.	.	.	8f\J	.	.	.	.	.
!	!	!	!	!	!	!	!	!	!	!LO:TX:b:t=P:problem:# below	!	!	!	!	!
.	.	.	.	.	.	.	.	.	.	2g#X\	-ci-	.	.	.	.
!	!	!	!	!	!	!	!	!	!	!	!	!	!	!LO:SIC:v:t=custos ee	!
.	.	.	.	.	.	.	.	4e\	-ci-	.	.	4b\	-ci-	4ee\	-ci-
=9-	=9-	=9-	=9-	=9-	=9-	=9-	=9-	=9-	=9-	=9-	=9-	=9-	=9-	=9-	=9-
!	!	!	!	!	!	!	!	!	!	!	!	!LO:TX:b:t=P:problem:# below	!	!	!
!	!	!	!	!	!	!	!	!	!	!	!	!	!	!LO:LB:g=original	!
2r	.	2r	.	2r	.	2r	.	1A	-o	1a	-o	1cc#X	-o	1ee	-o
1A/	nunc	1a\	nunc	1cc\	nunc	1ee\	nunc-	.	.	.	.	.	.	.	.
=10-	=10-	=10-	=10-	=10-	=10-	=10-	=10-	=10-	=10-	=10-	=10-	=10-	=10-	=10-	=10-
.	.	.	.	.	.	.	.	0r	.	0r	.	0r	.	0r	.
2d\	as-	2f\	as-	4a\	.	2ff\	a-	.	.	.	.	.	.	.	.
.	.	.	.	4b\	.	.	.	.	.	.	.	.	.	.	.
=11-	=11-	=11-	=11-	=11-	=11-	=11-	=11-	=11-	=11-	=11-	=11-	=11-	=11-	=11-	=11-
2.c/	-pi-	2.g\	-pi-	2.cc\	as-	2.ee\	-spi-	.	.	.	.	.	.	.	.
4c/	-ci-	4g\	-ci-	4cc\	-pi-	4ee\	-ci-	.	.	.	.	.	.	.	.
=12-	=12-	=12-	=12-	=12-	=12-	=12-	=12-	=12-	=12-	=12-	=12-	=12-	=12-	=12-	=12-
2c/	-o	2g\	-o	2cc\	-cio	2ee\	-o	2r	.	2r	.	2r	.	2r	.
2r	.	2r	.	2r	.	2r	.	1f\	quan-	1a\	quan-	1ccny\	quan-	1ff\	quan-
=13-	=13-	=13-	=13-	=13-	=13-	=13-	=13-	=13-	=13-	=13-	=13-	=13-	=13-	=13-	=13-
0r	.	0r	.	0r	.	0r	.	.	.	.	.	.	.	.	.
.	.	.	.	.	.	.	.	2f\	-do	2a\	-do	2cc\	-do	2ff\	-do
=14-	=14-	=14-	=14-	=14-	=14-	=14-	=14-	=14-	=14-	=14-	=14-	=14-	=14-	=14-	=14-
.	.	.	.	.	.	.	.	2c/	fi-	2gny\	fi-	2cc\	fi-	2ee\	fi-
.	.	.	.	.	.	.	.	2c/	-et	2g\	-et	2cc\	-et	2ee\	-et
=15-	=15-	=15-	=15-	=15-	=15-	=15-	=15-	=15-	=15-	=15-	=15-	=15-	=15-	=15-	=15-
2f\	quan-	2a\	quan-	2cc\	quan-	2ff\	quan-	1d	is-	2f\	iſ-	2.a\	iſ-	1dd	iſ-
2f\	-do	2a\	-do	2cc\	-do	2ff\	-do	.	.	2a\	-tud	.	.	.	.
.	.	.	.	.	.	.	.	.	.	.	.	4b\	-tud	.	.
=16-	=16-	=16-	=16-	=16-	=16-	=16-	=16-	=16-	=16-	=16-	=16-	=16-	=16-	=16-	=16-
2c/	fi-	2g\	fi-	2cc\	fi-	2ee\	fi-	1A	-tud	1a	.	1cc	.	1ee	-tud
!LO:SIC:v:t=custos d	!	!LO:SIC:v:t=custos f	!	!LO:SIC:v:t=custos dd	!	!LO:SIC:v:t=custos dd	!	!	!	!	!	!	!	!	!
2c/	-et	2e/	-et	2g/	-et	2ee\	-et	.	.	.	.	.	.	.	.
=17-	=17-	=17-	=17-	=17-	=17-	=17-	=17-	=17-	=17-	=17-	=17-	=17-	=17-	=17-	=17-
!LO:PB:g=original	!	!LO:LB:g=original	!	!LO:LB:g=original	!	!LO:PB:g=original	!	!	!	!	!	!	!	!	!
1d	i-	2.f\	i-	1dd	i-	1dd	i-	1r	.	1r	.	1r	.	1r	.
.	.	4g\	-ſtud	.	.	.	.	.	.	.	.	.	.	.	.
=18-	=18-	=18-	=18-	=18-	=18-	=18-	=18-	=18-	=18-	=18-	=18-	=18-	=18-	=18-	=18-
2A/	-stud	2a\	.	2cc\	-stud	2ee\	-stud	2r	.	2r	.	2r	.	2r	.
2r	.	2r	.	2r	.	2r	.	1d\	quod	1a\	quod	1dd\	quod	1ff\	quod
=19-	=19-	=19-	=19-	=19-	=19-	=19-	=19-	=19-	=19-	=19-	=19-	=19-	=19-	=19-	=19-
0r	.	0r	.	0r	.	0r	.	.	.	.	.	.	.	.	.
.	.	.	.	.	.	.	.	2f\	i-	2a\	i-	2a\	i-	2dd\	i-
=20-	=20-	=20-	=20-	=20-	=20-	=20-	=20-	=20-	=20-	=20-	=20-	=20-	=20-	=20-	=20-
!	!	!	!	!	!	!	!	!	!	!LO:TX:b:t=P:problem:# below	!	!	!	!	!
.	.	.	.	.	.	.	.	2.e\	-am	2.g#X\	-am	2.b\	-am	2.ee\	-am
.	.	.	.	.	.	.	.	4e\	si-	4g#\	si-	4b\	ſi-	4ee\	si-
=21-	=21-	=21-	=21-	=21-	=21-	=21-	=21-	=21-	=21-	=21-	=21-	=21-	=21-	=21-	=21-
!	!	!	!	!	!	!	!	!	!	!	!	!LO:TX:b:t=P:problem:# below	!	!	!
2r	.	2r	.	2r	.	2r	.	2A/	-tio	2a\	-tio	2cc#X\	-tio	2ee\	-tio
1F/	quod	1a\	quod	1cc\	quod	2.ff\	quod	2r	.	2r	.	2r	.	2r	.
=22-	=22-	=22-	=22-	=22-	=22-	=22-	=22-	=22-	=22-	=22-	=22-	=22-	=22-	=22-	=22-
.	.	.	.	.	.	.	.	0r	.	0r	.	0r	.	0r	.
.	.	.	.	.	.	4ee\	i-	.	.	.	.	.	.	.	.
2G/	i-	4g\	i-	2b-X\	i-	2.dd\	-am	.	.	.	.	.	.	.	.
.	.	4f\	.	.	.	.	.	.	.	.	.	.	.	.	.
=23-	=23-	=23-	=23-	=23-	=23-	=23-	=23-	=23-	=23-	=23-	=23-	=23-	=23-	=23-	=23-
2.A/	-am	2.e/	-am	2.a\	-am	.	.	.	.	.	.	.	.	.	.
.	.	.	.	.	.	8cc\L	si-	.	.	.	.	.	.	.	.
.	.	.	.	.	.	8b\J	.	.	.	.	.	.	.	.	.
!	!	!	!	!	!	!LO:TX:b:t=P:problem:# below	!	!	!	!	!	!	!	!	!
.	.	.	.	.	.	2cc#X\	-ti-	.	.	.	.	.	.	.	.
4A/	si-	4e/	si-	4a\	si-	.	.	.	.	.	.	.	.	.	.
=24-	=24-	=24-	=24-	=24-	=24-	=24-	=24-	=24-	=24-	=24-	=24-	=24-	=24-	=24-	=24-
!	!	!LO:TX:b:t=P:problem:# below	!	!	!	!	!	!	!	!	!	!LO:SIC:v:t=custos cc	!	!	!
1d	-tio	1f#X	-tio	1a	-tio	1dd	-o	1r	.	1r	.	1r	.	1r	.
=25-	=25-	=25-	=25-	=25-	=25-	=25-	=25-	=25-	=25-	=25-	=25-	=25-	=25-	=25-	=25-
*M3/2	*	*M3/2	*	*M3/2	*	*M3/2	*	*M3/2	*	*M3/2	*	*M3/2	*	*M3/2	*
!	!	!	!	!	!	!	!	!	!	!	!	!LO:PB:g=original	!	!	!
00.r	.	00.r	.	00.r	.	00.r	.	2c/	Vt	2gny\	Vt	2ccny\	Vt	2cc\	Vt
.	.	.	.	.	.	.	.	2B/	te	2g\	te	2g/	te	2dd\	te
!	!	!	!	!	!	!	!	!LO:SIC:v:t=custos d	!	!LO:SIC:v:t=custos a	!	!	!	!	!
.	.	.	.	.	.	.	.	2A/	re-	2a\	re-	2cc\	re-	2ee\	re-
=26-	=26-	=26-	=26-	=26-	=26-	=26-	=26-	=26-	=26-	=26-	=26-	=26-	=26-	=26-	=26-
!	!	!	!	!	!	!	!	!LO:LB:g=original	!	!LO:LB:g=original	!	!	!	!	!
.	.	.	.	.	.	.	.	2.d\	-ve-	2.a\	-ve-	2.dd\	-ve-	2.ff\	-ve-
.	.	.	.	.	.	.	.	4d\	-la-	4a\	-la-	4dd\	-la-	4ff\	-la-
!	!	!	!	!	!	!	!	!	!	!	!	!	!	!LO:SIC:v:t=custos dd	!
.	.	.	.	.	.	.	.	2d\	-ta	2a\	-ta	2dd\	-ta	2ff\	-ta
=27-	=27-	=27-	=27-	=27-	=27-	=27-	=27-	=27-	=27-	=27-	=27-	=27-	=27-	=27-	=27-
*	*	*	*	*	*	*	*	*	*	*	*	*	*	*M3/2	*
!	!	!	!	!	!	!	!	!	!	!	!	!	!	!LO:LB:g=original	!
.	.	.	.	.	.	.	.	2B/	Vt	2g\	Vt	2dd\	Vt	2dd\	Vt
.	.	.	.	.	.	.	.	2c/	te	2g\	te	2cc\	te	2ee\	te
.	.	.	.	.	.	.	.	2d\	re-	2d/	re-	2a\	re-	2ff\	re-
=28-	=28-	=28-	=28-	=28-	=28-	=28-	=28-	=28-	=28-	=28-	=28-	=28-	=28-	=28-	=28-
.	.	.	.	.	.	.	.	2.G/	-ve-	2.g\	-ve-	2.b\	-ve-	2.gg\	-ve-
.	.	.	.	.	.	.	.	4G/	-la-	4a\	-la-	4cc\	-la-	4gg\	-la-
.	.	.	.	.	.	.	.	2G/	-ta	2b\	-ta	2dd\	-ta	2gg\	-ta
=29-	=29-	=29-	=29-	=29-	=29-	=29-	=29-	=29-	=29-	=29-	=29-	=29-	=29-	=29-	=29-
!	!	!	!	!	!	!	!	!	!	!	!	!	!	!LO:N:vis=00	!
2g\	Vt	2g\	Vt	2bny\	Vt	2dd\	Vt	00.r	.	00.r	.	00.r	.	00.r	.
!LO:TX:b:t=P:problem:# below	!	!	!	!	!	!	!	!	!	!	!	!	!	!	!
2f#X\	te	2a\	te	2a\	te	2dd\	te	.	.	.	.	.	.	.	.
2g\	re-	2g\	re-	2b\	re-	2dd\	re-	.	.	.	.	.	.	.	.
=30-	=30-	=30-	=30-	=30-	=30-	=30-	=30-	=30-	=30-	=30-	=30-	=30-	=30-	=30-	=30-
2.c/	-ve-	2.g\	-ve-	2.cc\	-ve-	2.ee\	-ve-	.	.	.	.	.	.	.	.
4c/	-la-	4g\	-la-	4cc\	-la-	4ee\	-la-	.	.	.	.	.	.	.	.
2c/	-ta	2g\	-ta	2cc\	-ta	2ee\	-ta	.	.	.	.	.	.	.	.
=31-	=31-	=31-	=31-	=31-	=31-	=31-	=31-	=31-	=31-	=31-	=31-	=31-	=31-	=31-	=31-
!	!	!	!	!	!	!LO:TX:b:t=P:problem:# below	!	!	!	!	!	!	!	!	!
2fny\	Vt	2fny\	Vt	2a\	Vt	2cc#X\	Vt	.	.	.	.	.	.	.	.
!	!	!	!	!	!	!LO:TX:b:t=P:problem:# below	!	!	!	!	!	!	!	!	!
2e\	te	2g\	te	2g/	te	2cc#X\	te	.	.	.	.	.	.	.	.
2f\	re-	2f\	re-	2a\	re-	2cc#\	re-	.	.	.	.	.	.	.	.
=32-	=32-	=32-	=32-	=32-	=32-	=32-	=32-	=32-	=32-	=32-	=32-	=32-	=32-	=32-	=32-
2.d\	-ve-	2.a\	-ve-	2.a\	-ve-	2.dd\	-ve-	.	.	.	.	.	.	.	.
4d\	-la-	4a\	-la-	4a\	-la-	4dd\	-la-	.	.	.	.	.	.	.	.
!LO:SIC:v:t=custos f	!	!LO:SIC:v:t=custos f	!	!LO:SIC:v:t=custos cc	!	!LO:SIC:v:t=custos ff	!	!	!	!	!	!	!	!	!
2d\	-ta	2f\	-ta	2a\	-ta	2dd\	-ta	.	.	.	.	.	.	.	.
=33-	=33-	=33-	=33-	=33-	=33-	=33-	=33-	=33-	=33-	=33-	=33-	=33-	=33-	=33-	=33-
*M2/2	*	*M2/2	*	*M2/2	*	*M2/2	*	*M2/2	*	*M2/2	*	*M2/2	*	*M2/2	*
*met(C|)	*	*met(C|)	*	*met(C|)	*	*met(C|)	*	*met(C|)	*	*met(C|)	*	*met(C|)	*	*met(C|)	*
!LO:LB:g=original	!	!LO:PB:g=original	!	!LO:LB:g=original	!	!LO:LB:g=original	!	!	!	!	!	!	!	!	!
2f\	cer-	2f\	cer-	2cc\	cer-	2ff\	cer-	2F/	cer-	2a\	cer-	2cc\	cer-	2ff\	cer-
2f\	-nins	2c/	-nins	2a\	-nins	2ccny\	-nins	2F/	-nins	2a\	-nins	2cc\	-nins	2ff\	-nens
=34-	=34-	=34-	=34-	=34-	=34-	=34-	=34-	=34-	=34-	=34-	=34-	=34-	=34-	=34-	=34-
!	!	!	!	!	!	!	!	!	!	!LO:TX:b:t=P:problem:# below	!	!	!	!	!
2.c/	fa-	2.c/	fa-	2.g/	fa-	2.cc\	fa-	2.c/	fa-	2.g#X\	fa-	2.cc\	fa-	2.ee\	fa-
4c/	-ci-	4c/	-ci-	4cc\	-ci-	4cc\	-ci-	4c/	-ci-	4g#\	-ci-	4cc\	-ci-	4ee\	-ci-
=35-	=35-	=35-	=35-	=35-	=35-	=35-	=35-	=35-	=35-	=35-	=35-	=35-	=35-	=35-	=35-
!	!	!	!	!	!	!	!	!	!	!	!	!LO:SIC:v:t=custos dd	!	!	!
1f	-e	1c	-e	1cc	-e	1cc	-e	1F	-e	1a	-e	1cc	-e	1ff	-e
=36-	=36-	=36-	=36-	=36-	=36-	=36-	=36-	=36-	=36-	=36-	=36-	=36-	=36-	=36-	=36-
*M3/2	*	*M3/2	*	*M3/2	*	*M3/2	*	*M3/2	*	*M3/2	*	*M3/2	*	*M3/2	*
!	!	!	!	!	!	!	!	!	!	!	!	!LO:LB:g=original	!	!	!
0.r	.	0.r	.	0.r	.	0.r	.	2g\	Vi-	2b\	Vi-	2dd\	Vi-	2dd\	Vi-
.	.	.	.	.	.	.	.	2g\	-ſu	2b\	-su	2dd\	-su	2dd\	-ſu
!	!	!	!	!	!	!	!	!LO:SIC:v:t=custos c	!	!	!	!	!	!	!
.	.	.	.	.	.	.	.	2g\	sim	2b\	sim	2b\	sim	2dd\	sim
=37-	=37-	=37-	=37-	=37-	=37-	=37-	=37-	=37-	=37-	=37-	=37-	=37-	=37-	=37-	=37-
!	!	!	!	!	!	!	!	!LO:LB:g=original	!	!	!	!	!	!	!
.	.	.	.	.	.	.	.	2.c/	be-	2.gny\	be-	2.cc\	be-	2.ee\	be-
.	.	.	.	.	.	.	.	4c/	-a-	4g\	-a-	4cc\	-a-	4ee\	-a-
!	!	!	!	!	!	!	!	!	!	!LO:SIC:v:t=custos a	!	!	!	!LO:SIC:v:t=custos ee	!
.	.	.	.	.	.	.	.	2c/	-tus	2g\	-tus	2cc\	-tus	2ee\	-tus
=38-	=38-	=38-	=38-	=38-	=38-	=38-	=38-	=38-	=38-	=38-	=38-	=38-	=38-	=38-	=38-
!	!	!	!	!	!	!	!	!	!	!LO:LB:g=original	!	!	!	!LO:LB:g=original	!
2a\	Vi-	2e/	Vi-	2cc\	Vi-	2cc\	Vi-	2A/	Vi-	2a\	vi-	2cc\	vi-	2ee\	vi-
2a\	-su	2e/	-su	2cc\	-su	2cc\	-su	2A/	-su	2a\	-ſu	2a\	-su	2ee\	-su
2a\	sim	2a\	sim	2a\	sim	2ee\	sim	2A/	sim	2a\	sim	2cc\	sim	2ee\	sim
=39-	=39-	=39-	=39-	=39-	=39-	=39-	=39-	=39-	=39-	=39-	=39-	=39-	=39-	=39-	=39-
!	!	!	!	!	!	!	!	!	!	!LO:SIC:v:s=2.f#\	!	!	!	!LO:TX:b:t=P:problem:# below	!
2.d\	be-	2.a\	be-	2.a\	be-	2.dd\	be-	2.d\	be-	2.f\	be-	2.dd\	be-	2.ff#X\	be-
!	!	!	!	!	!	!	!	!	!	!LO:SIC:v:s=4f#\	!	!	!	!	!
4d\	-a-	4d/	-a-	4a\	-a-	4dd\	-a-	4d\	-a-	4f\	-a-	4dd\	-a-	4ff#\	-a-
2g\	-tus	2d/	-tus	2g/	-tus	2dd\	-tus	2G/	-tus	2d/	-tus	2b\	-tus	2gg,<\	-tus
=40-	=40-	=40-	=40-	=40-	=40-	=40-	=40-	=40-	=40-	=40-	=40-	=40-	=40-	=40-	=40-
1c	tu-	2r	.	1cc	tu-	1ee	tu-	1c	tu-	1g	tu-	1cc	tu-	2.ee\	tu-
.	.	2r	.	.	.	.	.	.	.	.	.	.	.	.	.
!	!	!	!	!	!	!	!	!	!	!	!	!	!	!LO:TX:b:t=P:problem:# below	!
.	.	.	.	.	.	.	.	.	.	.	.	.	.	4ff#X\	.
2G/	-ae	2d/	tu-	2b\	-ae	2dd\	-ae	2g\	-ae	2g\	-ae	2dd\	-ae	2gg\	-ae
=41-	=41-	=41-	=41-	=41-	=41-	=41-	=41-	=41-	=41-	=41-	=41-	=41-	=41-	=41-	=41-
!	!	!	!	!	!	!	!	!	!	!	!	!	!	!LO:TX:b:t=P:problem:# below	!
1d	glo-	2d/	-ae	1a	glo-	1dd	glo-	1d	glo-	1a	glo-	1dd	glo-	1ff#X	glo-
.	.	2d/	glo-	.	.	.	.	.	.	.	.	.	.	.	.
!	!	!	!	!	!	!	!	!	!	!	!	!	!	!LO:TX:t=P:problem:niewyraźne źródło	!
!	!	!	!	!	!	!	!	!	!	!	!	!	!	!LO:TX:b:t=P:problem:# below	!
2d\	-ri-	2d/	-ri-	2a\	-ri-	2dd\	-ri-	2d\	-ri-	2a\	-ri-	2dd\	-ri-	2ff#\	-ri-
=42-	=42-	=42-	=42-	=42-	=42-	=42-	=42-	=42-	=42-	=42-	=42-	=42-	=42-	=42-	=42-
*M2/2	*	*M2/2	*	*M2/2	*	*M2/2	*	*M2/2	*	*	*	*M2/2	*	*M2/2	*
*met(C|)	*	*met(C|)	*	*met(C|)	*	*met(C|)	*	*met(C|)	*	*	*	*met(C|)	*	*met(C|)	*
!	!	!	!	!	!	!	!	!	!	!LO:TX:t=P:problem:w tym głosie zmiana metrum następuję po całej nucie g	!	!	!	!	!
!	!	!	!	!	!	!	!	!	!	!LO:N:vis=1.	!	!	!	!LO:LB:g=original	!
1G	-ae	1d	-ae	1b	-ae	1dd,<	-ae	1g	-ae	1g	-ae	1b	-ae	1gg,<	-ae
=43-	=43-	=43-	=43-	=43-	=43-	=43-	=43-	=43-	=43-	=43-	=43-	=43-	=43-	=43-	=43-
*	*	*	*	*	*	*	*	*	*	*M2/2	*	*	*	*	*
*	*	*	*	*	*	*	*	*	*	*met(C|)	*	*	*	*	*
2c/	A-	2.g\	A-	4g/	A-	2ee\	A-	8c\L	A-	4.e/	A-	2cc\	A-	4.gg\	A-
.	.	.	.	.	.	.	.	8d\	.	.	.	.	.	.	.
.	.	.	.	4a\	.	.	.	8e\	.	.	.	.	.	.	.
.	.	.	.	.	.	.	.	8f\J	.	8f\	.	.	.	8aa\	.
2G/	-men	.	.	2b\	-men	2dd\	-men	2g\	.	2g\	-men	2dd\	-men	4gg\	.
.	.	4d/	-men	.	.	.	.	.	.	.	.	.	.	4ffny\	.
=44-	=44-	=44-	=44-	=44-	=44-	=44-	=44-	=44-	=44-	=44-	=44-	=44-	=44-	=44-	=44-
8c/L	A-	2g\	A-	2cc\	A-	4ee\	.	2c/	.	2g\	A-	2cc\	A-	4gg\	.
8d/J	.	.	.	.	.	.	.	.	.	.	.	.	.	.	.
4e\	.	.	.	.	.	4dd\	.	.	.	.	.	.	.	4ff\	.
4f\	.	2g\	-men	2dd\	.	4cc\	.	2G/	-men	2g\	-men	2b\	-men	4ee\	.
4g\	-men	.	.	.	.	4b/	.	.	.	.	.	.	.	4dd\	.
=45-	=45-	=45-	=45-	=45-	=45-	=45-	=45-	=45-	=45-	=45-	=45-	=45-	=45-	=45-	=45-
0c	A-	0g	A-	1.cc	-men	0cc	A-	0c	A-	0g	A-	1.cc	A-	4ee\	.
.	.	.	.	.	.	.	.	.	.	.	.	.	.	4dd\	.
.	.	.	.	.	.	.	.	.	.	.	.	.	.	4cc\	.
.	.	.	.	.	.	.	.	.	.	.	.	.	.	4b/	.
=46-	=46-	=46-	=46-	=46-	=46-	=46-	=46-	=46-	=46-	=46-	=46-	=46-	=46-	=46-	=46-
.	.	.	.	.	.	.	.	.	.	.	.	.	.	4cc\	.
.	.	.	.	.	.	.	.	.	.	.	.	.	.	4dd\	.
.	.	.	.	2g/	A-	.	.	.	.	.	.	4b\	.	2ee\	.
.	.	.	.	.	.	.	.	.	.	.	.	4a\	.	.	.
=47-	=47-	=47-	=47-	=47-	=47-	=47-	=47-	=47-	=47-	=47-	=47-	=47-	=47-	=47-	=47-
00G;	-men-	00d;	-men-	00g;	-men-	00dd;	-men-	00g;	-men-	00g;	-men-	00b;	-men-	00dd;	-men-
=-	=-	=-	=-	=-	=-	=-	=-	=-	=-	=-	=-	=-	=-	=-	=-
*-	*-	*-	*-	*-	*-	*-	*-	*-	*-	*-	*-	*-	*-	*-	*-
!!!system-decoration: [(s1,s2,s3,s4)][(s5,s6,s7,s8)]
!!!RDF**kern: < = below
!!!RDF**kern: > = above
!!!ENC: Anastazja Marusiak
!!!END: 2021-10-07
!!!ENC: Marta Chmielewska
!!!END: 2021-10-20
